X: 26722
T: Mike McHale's
R: jig
M: 6/8
K: Dmajor
E|A2A DFA|BAB d2e|fef dAF|GFG EFG|
AGA DFA|BAB d2e|faf ecA|GEA D2:|
e|faf gec|dcd AFD|dcd fed|ced cBA|
dcd afd|Bef gec|dcd AFA|GEA D2:|

